dist/images/pseudoElements/spiral2.svg

<svg width="32" height="48" viewBox="0 0 32 48" fill="none" xmlns="http://www.w3.org/2000/svg">
<path d="M9.02383 11.383C4.12383 13.783 -0.376172 21.583 0.0238282 26.983C0.223828 30.083 2.52383 31.183 5.12383 29.383C7.22383 27.983 8.52383 25.983 9.72383 23.783C11.2238 21.083 12.2238 18.283 13.1238 15.383C13.9238 12.983 15.2238 12.583 17.2238 14.183C18.7238 15.383 19.0238 17.083 19.2238 18.783C19.3238 19.383 18.9238 19.583 18.4238 19.883C13.0238 22.883 10.2238 29.883 11.9238 35.683C12.8238 38.783 15.0238 39.383 17.3238 37.083C18.6238 35.783 19.3238 34.083 20.0238 32.383C21.0238 29.783 21.5238 26.983 22.1238 24.483C22.7238 24.283 22.9238 24.483 23.1238 24.783C23.6238 25.583 24.2238 26.283 24.6238 27.083C27.0238 32.183 28.4238 37.583 27.9238 43.283C27.8238 44.083 27.7238 44.883 27.7238 45.683C27.7238 46.483 28.2238 47.083 29.0238 47.083C29.8238 47.183 30.3238 46.583 30.5238 45.883C30.7238 45.183 30.8238 44.483 30.9238 43.783C31.6238 37.083 30.0238 30.883 27.0238 25.083C26.3238 23.683 25.3238 22.283 24.0238 21.283C22.8238 20.483 22.4238 19.483 22.2238 18.083C21.7238 13.983 19.8238 10.983 15.3238 10.383C14.3238 10.183 14.1238 9.78298 13.9238 8.78298C13.0238 3.18298 7.82383 -0.617016 2.02383 0.0829837C1.02383 0.182984 0.223828 0.582984 0.323828 1.78298C0.323828 2.78298 1.02383 3.08298 1.92383 3.18298C3.72383 3.18298 5.42383 3.48298 7.02383 4.08298C8.72383 4.68298 10.0238 5.68298 10.6238 7.48298C11.4238 9.58298 11.0238 10.383 9.02383 11.383ZM3.22383 26.783C3.92383 21.883 5.12383 17.283 9.92383 14.583C8.72383 19.183 7.42383 23.783 3.22383 26.783ZM15.3238 34.883C13.3238 31.283 15.4238 25.083 19.2238 22.983C18.5238 27.283 17.7238 31.283 15.3238 34.883Z" fill="white"/>
</svg>

<svg width="32" height="48" fill="none" xmlns="http://www.w3.org/2000/svg"><path d="M9.024 11.383c-4.9 2.4-9.4 10.2-9 15.6.2 3.1 2.5 4.2 5.1 2.4 2.1-1.4 3.4-3.4 4.6-5.6 1.5-2.7 2.5-5.5 3.4-8.4.8-2.4 2.1-2.8 4.1-1.2 1.5 1.2 1.8 2.9 2 4.6.1.6-.3.8-.8 1.1-5.4 3-8.2 10-6.5 15.8.9 3.1 3.1 3.7 5.4 1.4 1.3-1.3 2-3 2.7-4.7 1-2.6 1.5-5.4 2.1-7.9.6-.2.8 0 1 .3.5.8 1.1 1.5 1.5 2.3 2.4 5.1 3.8 10.5 3.3 16.2-.1.8-.2 1.6-.2 2.4 0 .8.5 1.4 1.3 1.4.8.1 1.3-.5 1.5-1.2.2-.7.3-1.4.4-2.1.7-6.7-.9-12.9-3.9-18.7-.7-1.4-1.7-2.8-3-3.8-1.2-.8-1.6-1.8-1.8-3.2-.5-4.1-2.4-7.1-6.9-7.7-1-.2-1.2-.6-1.4-1.6-.9-5.6-6.1-9.4-11.9-8.7-1 .1-1.8.5-1.7 1.7 0 1 .7 1.3 1.6 1.4 1.8 0 3.5.3 5.1.9 1.7.6 3 1.6 3.6 3.4.8 2.1.4 2.9-1.6 3.9zm-5.8 15.4c.7-4.9 1.9-9.5 6.7-12.2-1.2 4.6-2.5 9.2-6.7 12.2zm12.1 8.1c-2-3.6.1-9.8 3.9-11.9-.7 4.3-1.5 8.3-3.9 11.9z" fill="#fff"/></svg>
